src/img/ui/quotes.svg

<svg width="81" height="62" viewBox="0 0 81 62" fill="none" xmlns="http://www.w3.org/2000/svg">
<g opacity="0.1" clip-path="url(#clip0)">
<path d="M6.81446 56.6663C2.13654 51.6977 -0.375 46.1251 -0.375 37.0917C-0.375 21.1959 10.7839 6.94867 27.0112 -0.095459L31.067 6.16296C15.9205 14.3561 12.9593 24.9882 11.7785 31.6917C14.2174 30.4291 17.4102 29.9885 20.5394 30.2792C28.7325 31.0377 35.1908 37.7639 35.1908 46.1251C35.1908 50.3409 33.5161 54.3841 30.535 57.3651C27.554 60.3462 23.5108 62.0209 19.295 62.0209C16.9635 62.0005 14.6594 61.5166 12.5168 60.5974C10.3742 59.6781 8.43577 58.3418 6.81446 56.6663ZM52.2311 56.6663C47.5532 51.6977 45.0417 46.1251 45.0417 37.0917C45.0417 21.1959 56.2005 6.94867 72.4279 -0.095459L76.4836 6.16296C61.3372 14.3561 58.376 24.9882 57.1952 31.6917C59.634 30.4291 62.8268 29.9885 65.956 30.2792C74.1492 31.0377 80.6075 37.7639 80.6075 46.1251C80.6075 50.3409 78.9327 54.3841 75.9517 57.3651C72.9706 60.3462 68.9275 62.0209 64.7116 62.0209C62.3802 62.0005 60.0761 61.5166 57.9335 60.5974C55.7908 59.6781 53.8524 58.3418 52.2311 56.6663Z" fill="black"/>
</g>
<defs>
<clipPath id="clip0">
<rect width="81" height="62" fill="white"/>
</clipPath>
</defs>
</svg>

<svg width="81" height="62" fill="none" xmlns="http://www.w3.org/2000/svg"><g opacity=".1" clip-path="url(#prefix__clip0)"><path d="M6.814 56.666C2.137 51.698-.375 46.126-.375 37.092c0-15.896 11.159-30.143 27.386-37.187l4.056 6.258c-15.146 8.193-18.108 18.825-19.288 25.529 2.438-1.263 5.631-1.704 8.76-1.413 8.194.759 14.652 7.485 14.652 15.846a15.895 15.895 0 01-15.896 15.896 17.582 17.582 0 01-12.48-5.355zm45.417 0c-4.678-4.968-7.19-10.54-7.19-19.574 0-15.896 11.16-30.143 27.387-37.187l4.056 6.258c-15.147 8.193-18.108 18.825-19.289 25.529 2.439-1.263 5.632-1.704 8.761-1.413 8.193.759 14.651 7.485 14.651 15.846a15.896 15.896 0 01-15.895 15.896 17.582 17.582 0 01-12.48-5.355z" fill="#000"/></g><defs><clipPath id="prefix__clip0"><path fill="#fff" d="M0 0h81v62H0z"/></clipPath></defs></svg>
